z_dist/img/icons/crypto/litecoin-LTC.svg

<svg width="64" height="64" viewBox="0 0 64 64" fill="none" xmlns="http://www.w3.org/2000/svg">
<rect y="0.000244141" width="64" height="64" rx="4" fill="#345D9D"/>
<path d="M32.5423 33.085L29.2106 44.3199H47.0314C47.2698 44.3115 47.5017 44.3983 47.6761 44.5611C47.8505 44.7238 47.9531 44.9493 47.9611 45.1877V45.4821L46.4115 50.8284C46.2708 51.3491 45.7882 51.703 45.2493 51.6807H17.9757L22.5471 36.1068L17.4333 37.6564L18.5956 34.0923L23.7094 32.5426L30.1403 10.6927C30.286 10.1754 30.7654 9.82385 31.3026 9.8404H38.1984C38.4369 9.83204 38.6688 9.9188 38.8432 10.0816C39.0176 10.2444 39.1201 10.4698 39.1282 10.7082V11.0026L33.7045 29.4434L38.8183 27.8937L37.7336 31.6128L32.5423 33.085Z" fill="white"/>
</svg>

<svg width="64" height="64" fill="none" xmlns="http://www.w3.org/2000/svg"><rect width="64" height="64" rx="4" fill="#345D9D"/><path d="M32.542 33.085L29.211 44.32h17.82a.898.898 0 01.93.868v.294l-1.55 5.346c-.14.521-.623.875-1.162.853H17.976l4.571-15.574-5.114 1.55 1.163-3.565 5.113-1.55 6.431-21.85a1.17 1.17 0 011.163-.852h6.895a.899.899 0 01.93.868v.295l-5.423 18.44 5.113-1.55-1.084 3.72-5.192 1.472z" fill="#fff"/></svg>
